packages/icon/src/svg/scope.icon.svg

<?xml version="1.0" encoding="UTF-8"?>
<svg width="24px" height="24px" viewBox="0 0 24 24" version="1.1" xmlns="http://www.w3.org/2000/svg" xmlns:xlink="http://www.w3.org/1999/xlink">
    <!-- Generator: Sketch 46.1 (44463) - http://www.bohemiancoding.com/sketch -->
    <title>Icon/scope.icon</title>
    <desc>Created with Sketch.</desc>
    <defs>
        <path d="M12.8389834,11.4556818 C13.2993358,11.331574 13.7960736,11.5520931 14.0044967,11.9990577 L17.808038,20.1557783 C18.0414436,20.6563183 17.8248884,21.2512987 17.3243484,21.4847044 C16.8238085,21.71811 16.228828,21.5015548 15.9954224,21.0010148 L13,14.5773108 L13,21 C13,21.5522847 12.5522847,22 12,22 C11.4477153,22 11,21.5522847 11,21 L11,14.5771938 L8.00452305,21.0010148 C7.77111743,21.5015548 7.17613697,21.71811 6.675597,21.4847044 C6.17505703,21.2512987 5.95850186,20.6563183 6.19190748,20.1557783 L9.99544877,11.9990577 C10.2038788,11.552078 10.700643,11.3315592 11.1610085,11.4556943 C11.3393256,11.181427 11.6484819,11.0000546 12,11.0000546 C12.3515128,11.0000546 12.660665,11.1814214 12.8389834,11.4556818 L12.8389834,11.4556818 Z M11,10 L19,10 L19,6 L11,6 L11,10 Z M10,4 L20,4 C20.5522847,4 21,4.44771525 21,5 L21,11 C21,11.5522847 20.5522847,12 20,12 L10,12 C9.44771525,12 9,11.5522847 9,11 L9,5 C9,4.44771525 9.44771525,4 10,4 Z M8,9 L9,9 L9,7 L8,7 L8,9 Z M7,5 L10,5 C10.5522847,5 11,5.44771525 11,6 L11,10 C11,10.5522847 10.5522847,11 10,11 L7,11 C6.44771525,11 6,10.5522847 6,10 L6,6 C6,5.44771525 6.44771525,5 7,5 Z M5,6 L6,6 C6.55228475,6 7,6.44771525 7,7 L7,9 C7,9.55228475 6.55228475,10 6,10 L5,10 C4.44771525,10 4,9.55228475 4,9 L4,7 C4,6.44771525 4.44771525,6 5,6 Z" id="path-1"></path>
    </defs>
    <g id="Symbols" stroke="none" stroke-width="1" fill="none" fill-rule="evenodd">
        <g id="Icon/scope">
            <mask id="mask-2" fill="white">
                <use xlink:href="#path-1"></use>
            </mask>
            <use id="Rectangle-2" fill="#000000" fill-rule="nonzero" xlink:href="#path-1"></use>
            <g id="Color/Neutral/White" mask="url(#mask-2)" fill="#FFFFFF">
                <rect id="222222-Fill" x="0" y="0" width="24" height="24"></rect>
            </g>
        </g>
    </g>
</svg>

<svg viewBox="0 0 24 24" xmlns="http://www.w3.org/2000/svg"><path d="M12.839 11.4557c.4603-.124.957.0964 1.1655.5434l3.8035 8.157c.2334.5004.017 1.0954-.4837 1.329-.5005.2332-1.0955.0167-1.329-.484L13 14.5774V21c0 .5523-.4477 1-1 1s-1-.4477-1-1v-6.4228L8.0045 21.001c-.2334.5006-.8284.717-1.329.4837-.5004-.2334-.717-.8284-.4836-1.329l3.8033-8.1566c.2085-.447.7052-.6673 1.1656-.5432.1782-.2743.4874-.4556.839-.4556s.6606.1814.839.4557zM11 10h8V6h-8v4zm-1-6h10c.5523 0 1 .4477 1 1v6c0 .5523-.4477 1-1 1H10c-.5523 0-1-.4477-1-1V5c0-.5523.4477-1 1-1zM8 9h1V7H8v2zM7 5h3c.5523 0 1 .4477 1 1v4c0 .5523-.4477 1-1 1H7c-.5523 0-1-.4477-1-1V6c0-.5523.4477-1 1-1zM5 6h1c.5523 0 1 .4477 1 1v2c0 .5523-.4477 1-1 1H5c-.5523 0-1-.4477-1-1V7c0-.5523.4477-1 1-1z" /></svg>
